X:13
T:McGowan's Motor Car
C:Roy Watrous, 1979
S:The Watrous Book, 1992
M:2/4
L:1/16
Q:1/4=90
K:A
%%MIDI program 72
%%MIDI transpose 8
%%MIDI ratio 3 1
ed|ceA2 A2cB|ABcd e2dc|dfB2 B2BA|GABc dfed|ceA2 A2cB|
ABcd e2dc|dfBd ceAc|BdGB A2::cd|e2a2 a2gf|eaec d2Bc|
dfdB cecA|BABc d2cd|e2a2 a2gf|eaec d2Bc|dfBd ceAc|
BdGB A2::z2|{B}c2{B}c2 {B}c2{B}c2|fa2f agfe|{B}c2{B}c2 fa2f|agfe f4|
a2a2 a2gf|eaec d2Bc|dfBd ceAc|BdGB A2:|]

